ui_kit/lib/assets/icons/end_warning.svg

<svg width="24" height="24" viewBox="0 0 24 24" fill="none" xmlns="http://www.w3.org/2000/svg">
<path fill-rule="evenodd" clip-rule="evenodd" d="M10.8429 4.30333C11.1961 4.10447 11.5947 4 12 4C12.4053 4 12.8039 4.10447 13.1571 4.30333C13.5103 4.5022 13.8063 4.78874 14.0165 5.13531L14.0188 5.13904L20.6776 16.2554L20.6839 16.2662C20.8899 16.6229 20.9988 17.0272 21 17.439C21.0011 17.8508 20.8944 18.2558 20.6905 18.6136C20.4866 18.9713 20.1925 19.2695 19.8376 19.4783C19.4827 19.6872 19.0792 19.7994 18.6674 19.804L18.6588 19.8041L5.33257 19.804C4.92077 19.7995 4.51734 19.6872 4.16241 19.4783C3.80748 19.2695 3.51342 18.9713 3.30949 18.6136C3.10555 18.2558 2.99886 17.8508 3.00001 17.439C3.00116 17.0272 3.11013 16.6229 3.31606 16.2662L3.32245 16.2554L9.98124 5.13905L10.6556 5.54303L9.98349 5.13531C10.1937 4.78874 10.4897 4.5022 10.8429 4.30333ZM11.3288 5.9492L4.67508 17.057C4.60812 17.1748 4.57271 17.3079 4.57233 17.4434C4.57194 17.5807 4.60751 17.7157 4.67549 17.8349C4.74346 17.9542 4.84149 18.0536 4.95979 18.1232C5.07707 18.1922 5.21023 18.2296 5.34623 18.2317H18.6538C18.7898 18.2296 18.9229 18.1922 19.0402 18.1232C19.1585 18.0536 19.2565 17.9542 19.3245 17.8349C19.3925 17.7157 19.4281 17.5807 19.4277 17.4434C19.4273 17.3079 19.3919 17.1748 19.3249 17.0571L12.6722 5.95076L12.6712 5.9492C12.6012 5.83437 12.5029 5.73942 12.3857 5.67344C12.268 5.60715 12.1351 5.57232 12 5.57232C11.8649 5.57232 11.732 5.60715 11.6143 5.67344C11.4971 5.73942 11.3988 5.83437 11.3288 5.9492ZM12 8.79773C12.4342 8.79773 12.7862 9.14971 12.7862 9.58389V12.7285C12.7862 13.1627 12.4342 13.5147 12 13.5147C11.5658 13.5147 11.2138 13.1627 11.2138 12.7285V9.58389C11.2138 9.14971 11.5658 8.79773 12 8.79773ZM12 15.087C11.5658 15.087 11.2138 15.439 11.2138 15.8732C11.2138 16.3074 11.5658 16.6594 12 16.6594H12.0079C12.442 16.6594 12.794 16.3074 12.794 15.8732C12.794 15.439 12.442 15.087 12.0079 15.087H12Z" fill="#CC525F"/>
</svg>

<svg xmlns="http://www.w3.org/2000/svg" width="24" height="24" fill="none" viewBox="0 0 24 24"><path fill="#CC525F" fill-rule="evenodd" d="M10.843 4.303a2.359 2.359 0 0 1 3.174.832l.002.004 6.659 11.116.006.011a2.359 2.359 0 0 1-2.017 3.538H5.333a2.358 2.358 0 0 1-2.017-3.538l.006-.01 6.66-11.117.674.404-.673-.408c.21-.346.507-.633.86-.832Zm.486 1.646L4.675 17.057a.786.786 0 0 0 .671 1.175h13.308a.786.786 0 0 0 .67-1.175L12.673 5.951v-.002a.786.786 0 0 0-1.343 0ZM12 8.798c.434 0 .786.352.786.786v3.145a.786.786 0 0 1-1.572 0V9.584c0-.434.352-.786.786-.786Zm0 6.289a.786.786 0 0 0 0 1.572h.008a.786.786 0 0 0 0-1.572H12Z" clip-rule="evenodd"/></svg>
